svgs/oneyou_icons.svg

<svg xmlns="http://www.w3.org/2000/svg" width="192" height="192" fill="none" viewBox="0 0 192 192"><path stroke="#000" stroke-linecap="round" stroke-linejoin="round" stroke-width="12" d="M116 45v42L84 45v42m86-42h-24a8 8 0 0 0-8 8v13m32 21h-24a8 8 0 0 1-8-8V66m0 0h32m-32 41v23c0 11.046 7.163 17 16 17s16-5.954 16-17v-23M38 123.667 54 107m-16 16.667L22 107m16 16.667V147m24-81c0 11.598-8.954 21-20 21s-20-9.402-20-21 8.954-21 20-21 20 9.402 20 21m54 61c0 11.046-8.954 20-20 20s-20-8.954-20-20 8.954-20 20-20 20 8.954 20 20"/></svg>

<svg width="192" height="192" viewBox="0 0 192 192" fill="none" xmlns="http://www.w3.org/2000/svg">
<path d="M116 45V87L84 45V87M170 45H146C141.582 45 138 48.5817 138 53V66M170 87H146C141.582 87 138 83.4183 138 79V66M138 66H170M138 107V130C138 141.046 145.163 147 154 147C162.837 147 170 141.046 170 130V107M38 123.667L54 107M38 123.667L22 107M38 123.667V147M62 66C62 77.598 53.0457 87 42 87C30.9543 87 22 77.598 22 66C22 54.402 30.9543 45 42 45C53.0457 45 62 54.402 62 66ZM116 127C116 138.046 107.046 147 96 147C84.9543 147 76 138.046 76 127C76 115.954 84.9543 107 96 107C107.046 107 116 115.954 116 127Z" stroke="black" stroke-width="12" stroke-linecap="round" stroke-linejoin="round"/>
</svg>
